layout/images/svg/logo.svg

<?xml version="1.0" encoding="UTF-8" standalone="no"?>
<svg width="133px" height="42px" viewBox="0 0 133 42" version="1.1" xmlns="http://www.w3.org/2000/svg" xmlns:xlink="http://www.w3.org/1999/xlink" xmlns:sketch="http://www.bohemiancoding.com/sketch/ns">
    <!-- Generator: Sketch 3.5.1 (25234) - http://www.bohemiancoding.com/sketch -->
    <title>logo</title>
    <desc>Created with Sketch.</desc>
    <defs></defs>
    <g id="Page-1" stroke="none" stroke-width="1" fill="none" fill-rule="evenodd" sketch:type="MSPage">
        <g id="logo" sketch:type="MSLayerGroup">
            <path d="M84.336,26.291 C85.9248897,27.6499224 87.9803,28.3370915 90.067,28.207 C91.1668498,28.2228473 92.2624144,28.0666272 93.314,27.744 C94.2290017,27.4582567 95.0726974,26.9810147 95.789,26.344 C96.5119002,25.6750568 97.0584128,24.8379411 97.38,23.907 C97.7669664,22.781565 97.9531314,21.596879 97.93,20.407 L97.93,11.086 L93.207,11.086 L93.207,20.551 C93.2780523,21.4884048 92.9842755,22.417026 92.387,23.143 C91.7874803,23.7427696 90.9606944,24.0584978 90.114,24.011 C89.2607619,24.0585783 88.4295743,23.7296122 87.84,23.111 C87.2417359,22.3536548 86.9491484,21.3995341 87.02,20.437 L87.02,11.086 L82.297,11.086 L82.297,20.52 C82.297,23.09 82.9766667,25.0136667 84.336,26.291 L84.336,26.291 Z M109.843,27.891 C111.494008,27.9875424 113.133417,27.5609812 114.528,26.672 C115.625268,25.9086064 116.259281,24.6398277 116.211,23.304 C116.263063,22.3354253 115.958548,21.3813265 115.355,20.622 C114.680013,19.8936044 113.820719,19.361167 112.868,19.081 C114.462729,18.5188279 115.511075,16.9901746 115.461,15.3 C115.493203,14.2799631 115.098521,13.2927144 114.372,12.576 C113.102455,11.4911611 111.45373,10.9554965 109.789,11.087 L101.176,11.087 L101.176,27.887 L109.848,27.887 L109.843,27.891 Z M105.735,21.047 L109.278,21.047 C109.876129,21.0057283 110.472465,21.1495752 110.986,21.459 C111.357214,21.7123735 111.573315,22.137786 111.559,22.587 C111.583318,23.0626399 111.362601,23.5176568 110.974,23.793 C110.480986,24.0999787 109.904715,24.2460558 109.325,24.211 L105.735,24.211 L105.735,21.046 L105.735,21.047 Z M105.735,14.766 L108.748,14.766 C109.296807,14.7305511 109.843393,14.8630993 110.315,15.146 C110.668292,15.3889227 110.87159,15.7966533 110.853,16.225 C110.853,17.245 110.119667,17.755 108.653,17.755 L105.73,17.755 L105.73,14.761 L105.735,14.766 Z M132.442,27.891 L132.442,23.929 L123.418,23.929 L123.418,21.269 L131.481,21.269 L131.481,17.589 L123.418,17.589 L123.418,15.046 L132.325,15.046 L132.325,11.086 L118.813,11.086 L118.813,27.886 L132.442,27.886 L132.442,27.891 Z M4.559,27.805 L4.559,18.205 L8.836,24.732 L8.93,24.732 L13.219,18.161 L13.219,27.805 L17.871,27.805 L17.871,11.005 L12.938,11.005 L8.93,17.505 L4.922,11.005 L3.55271368e-15,11.005 L3.55271368e-15,27.805 L4.559,27.805 L4.559,27.805 Z M26.159,21.512 L26.159,27.805 L30.811,27.805 L30.811,21.441 L37.198,11 L31.981,11 L28.512,17.129 L25.078,11 L19.77,11 L26.159,21.512 Z" id="text" fill="#26D7FC" sketch:type="MSShapeGroup"></path>
            <path d="M76.3934699,30.5037894 C79.8905898,25.0879499 80.573184,18.2049491 78.0050222,12.1040352 C74.8962843,4.71893114 67.6386584,-0.0605978694 59.6261512,0.000580457929 L59.6261512,0.000580457929 C54.4008532,0.0201685606 49.3974,2.11492095 45.7167168,5.82392284 C42.0360336,9.53292473 39.9796906,14.5522857 40.0001512,19.7775805 C40.0003848,27.7903212 44.8353979,35.0111023 52.2441113,38.0631473 C58.4614078,40.6243841 65.4600128,39.8250527 70.8857439,36.1404847 L76.5271512,42.0005805 L81.9941512,36.3215805 L76.3934699,30.5037894 Z M59.6261512,9.37958046 C65.342586,9.48953233 69.8982558,14.1933276 69.8253045,19.9103542 C69.7523531,25.6273808 65.0781419,30.2133994 59.3607628,30.1774516 C53.6433838,30.1415039 49.0272086,25.4970724 49.0261512,19.7795805 C49.052547,16.9947674 50.1841893,14.3345132 52.1721026,12.3841078 C54.1600158,10.4337023 56.8413406,9.35293214 59.6261512,9.37958046 L59.6261512,9.37958046 Z" id="circle" fill="#FC0D1B" sketch:type="MSShapeGroup"></path>
        </g>
    </g>
</svg>

<svg width="133" height="42" viewBox="0 0 133 42" xmlns="http://www.w3.org/2000/svg"><g fill="none" fill-rule="evenodd"><path d="M84.336 26.29c1.59 1.36 3.644 2.047 5.73 1.917 1.1.016 2.196-.14 3.248-.463.915-.286 1.76-.763 2.475-1.4.722-.67 1.268-1.506 1.59-2.437.387-1.125.573-2.31.55-3.5v-9.32h-4.723v9.464c.07.938-.223 1.867-.82 2.593-.6.6-1.426.915-2.273.868-.853.05-1.684-.28-2.274-.9-.598-.756-.89-1.71-.82-2.673v-9.35h-4.723v9.433c0 2.57.68 4.494 2.04 5.77zm25.507 1.6c1.65.098 3.29-.33 4.685-1.218 1.097-.763 1.73-2.032 1.683-3.368.053-.97-.25-1.923-.855-2.682-.675-.728-1.534-1.26-2.487-1.54 1.595-.563 2.643-2.092 2.593-3.782.033-1.02-.36-2.007-1.088-2.724-1.27-1.085-2.918-1.62-4.583-1.49h-8.614v16.8h8.672l-.005.005zm-4.108-6.843h3.543c.598-.04 1.194.103 1.708.412.37.252.587.678.573 1.127.023.476-.197.93-.586 1.206-.493.307-1.07.453-1.65.418h-3.59v-3.164zm0-6.28h3.013c.55-.036 1.095.096 1.567.38.353.242.557.65.538 1.078 0 1.02-.733 1.53-2.2 1.53h-2.923V14.76l.005.006zm26.707 13.124v-3.96h-9.024v-2.66h8.063v-3.68h-8.062v-2.544h8.907v-3.96h-13.512v16.8h13.63v.005zM4.56 27.806v-9.6l4.276 6.527h.094l4.29-6.57v9.643h4.65v-16.8H12.94l-4.008 6.5-4.008-6.5H0v16.8h4.56zm21.6-6.293v6.293h4.65V21.44L37.2 11H31.98l-3.468 6.13L25.078 11H19.77l6.39 10.512z" fill="#26D7FC"/><path d="M76.393 30.504c3.498-5.416 4.18-12.3 1.612-18.4C74.895 4.72 67.64-.06 59.625 0c-5.224.02-10.228 2.115-13.908 5.824-3.68 3.71-5.737 8.728-5.717 13.954 0 8.012 4.835 15.233 12.244 18.285 6.217 2.56 13.216 1.762 18.642-1.923l5.64 5.86 5.468-5.678-5.6-5.818zM59.626 9.38c5.717.11 10.272 4.813 10.2 10.53-.074 5.717-4.748 10.303-10.465 10.267-5.717-.035-10.333-4.68-10.334-10.397.027-2.785 1.158-5.445 3.146-7.396 1.988-1.95 4.67-3.03 7.454-3.004z" fill="#FC0D1B"/></g></svg>
